app/images/icons/improve-cashflow-icon.svg

<?xml version="1.0" encoding="UTF-8" standalone="no"?>
<svg width="76px" height="76px" viewBox="0 0 76 76" version="1.1" xmlns="http://www.w3.org/2000/svg" xmlns:xlink="http://www.w3.org/1999/xlink" xmlns:sketch="http://www.bohemiancoding.com/sketch/ns">
    <!-- Generator: Sketch 3.1 (8751) - http://www.bohemiancoding.com/sketch -->
    <title>improve-cashflow-icon</title>
    <desc>Created with Sketch.</desc>
    <defs></defs>
    <g id="Page-1" stroke="none" stroke-width="1" fill="none" fill-rule="evenodd" sketch:type="MSPage">
        <g id="improve-cashflow-icon" sketch:type="MSLayerGroup" fill="#0A0B09">
            <g id="Page-1" sketch:type="MSShapeGroup">
                <g id="cashflow-icon">
                    <path d="M60.8,27.8666667 L68.4,27.8666667 L68.4,73.4666667 L60.8,73.4666667 L60.8,27.8666667 L60.8,27.8666667 Z M43.0666667,50.6666667 L50.6666667,50.6666667 L50.6666667,73.4666667 L43.0666667,73.4666667 L43.0666667,50.6666667 L43.0666667,50.6666667 Z M25.3333333,43.0666667 L32.9333333,43.0666667 L32.9333333,73.4666667 L25.3333333,73.4666667 L25.3333333,43.0666667 L25.3333333,43.0666667 Z M7.6,60.8012667 L15.2,60.8012667 L15.2,73.4666667 L7.6,73.4666667 L7.6,60.8012667 L7.6,60.8012667 Z M74.7333333,73.4666667 L70.9333333,73.4666667 L70.9333333,26.6012667 C70.9333333,25.9008 70.3633333,25.3333333 69.6666667,25.3333333 L59.5333333,25.3333333 C58.8366667,25.3333333 58.2666667,25.9008 58.2666667,26.6012667 L58.2666667,73.4666667 L53.2,73.4666667 L53.2,49.4012667 C53.2,48.7008 52.63,48.1333333 51.9333333,48.1333333 L41.8,48.1333333 C41.1033333,48.1333333 40.5333333,48.7008 40.5333333,49.4012667 L40.5333333,73.4666667 L35.4666667,73.4666667 L35.4666667,41.8012667 C35.4666667,41.1008 34.8966667,40.5333333 34.2,40.5333333 L24.0666667,40.5333333 C23.37,40.5333333 22.8,41.1008 22.8,41.8012667 L22.8,73.4666667 L17.7333333,73.4666667 L17.7333333,59.5333333 C17.7333333,58.8341333 17.1633333,58.2666667 16.4666667,58.2666667 L6.33333333,58.2666667 C5.63666667,58.2666667 5.06666667,58.8341333 5.06666667,59.5333333 L5.06666667,73.4666667 L1.26666667,73.4666667 C0.57,73.4666667 0,74.0341333 0,74.7333333 C0,75.4325333 0.57,76.0012667 1.26666667,76.0012667 L74.7333333,76.0012667 C75.43,76.0012667 76,75.4325333 76,74.7333333 C76,74.0341333 75.43,73.4666667 74.7333333,73.4666667 L74.7333333,73.4666667 L74.7333333,73.4666667 Z" id="Fill-2854"></path>
                    <path d="M10.1333333,34.2 C10.8933333,34.2 11.5773333,34.5445333 12.0333333,35.0778 L12.0333333,35.0803333 C12.426,35.5262 12.6666667,36.1 12.6666667,36.7320667 C12.6666667,38.1292 11.5266667,39.2654 10.1333333,39.2654 C8.74,39.2654 7.6,38.1292 7.6,36.7320667 C7.6,35.3362 8.74,34.2 10.1333333,34.2 L10.1333333,34.2 L10.1333333,34.2 Z M29.1333333,17.7320667 C30.5266667,17.7320667 31.6666667,18.8695333 31.6666667,20.2654 C31.6666667,21.6625333 30.5266667,22.8 29.1333333,22.8 C27.74,22.8 26.6,21.6625333 26.6,20.2654 C26.6,18.8695333 27.74,17.7320667 29.1333333,17.7320667 L29.1333333,17.7320667 L29.1333333,17.7320667 Z M48.1333333,25.3320667 C48.7413333,25.3320667 49.2986667,25.5613333 49.742,25.9248667 L49.742,25.9299333 C49.742,25.9337333 49.7546667,25.9337333 49.7546667,25.935 C50.312,26.3998667 50.6666667,27.0876667 50.6666667,27.8654 C50.6666667,29.2625333 49.5266667,30.4 48.1333333,30.4 C46.74,30.4 45.6,29.2625333 45.6,27.8654 C45.6,26.4695333 46.74,25.3320667 48.1333333,25.3320667 L48.1333333,25.3320667 L48.1333333,25.3320667 Z M67.1333333,2.53206667 C68.5266667,2.53206667 69.6666667,3.66953333 69.6666667,5.0654 C69.6666667,6.46253333 68.5266667,7.6 67.1333333,7.6 C65.74,7.6 64.6,6.46253333 64.6,5.0654 C64.6,3.66953333 65.74,2.53206667 67.1333333,2.53206667 L67.1333333,2.53206667 L67.1333333,2.53206667 Z M10.1333333,41.8 C12.9326667,41.8 15.2,39.5263333 15.2,36.7320667 C15.2,35.9239333 14.9973333,35.1702667 14.6553333,34.4926 L26.258,24.4327333 C27.0813333,24.9964 28.0693333,25.3320667 29.1333333,25.3320667 C30.8053333,25.3320667 32.2746667,24.51 33.1993333,23.256 L43.13,27.2295333 C43.1046667,27.4398 43.0666667,27.6475333 43.0666667,27.8654 C43.0666667,30.6596667 45.334,32.9320667 48.1333333,32.9320667 C50.9326667,32.9320667 53.2,30.6596667 53.2,27.8654 C53.2,26.7659333 52.8326667,25.7513333 52.2373333,24.9204 L64.98,9.63426667 C65.6386667,9.94586667 66.3606667,10.1320667 67.1333333,10.1320667 C69.9326667,10.1320667 72.2,7.85966667 72.2,5.0654 C72.2,2.27366667 69.9326667,0 67.1333333,0 C64.334,0 62.0666667,2.27366667 62.0666667,5.0654 C62.0666667,6.1674 62.434,7.182 63.0293333,8.01166667 L50.2866667,23.3003333 C49.628,22.9887333 48.906,22.8 48.1333333,22.8 C46.4613333,22.8 44.992,23.6220667 44.0673333,24.8760667 L34.1366667,20.9025333 C34.162,20.6922667 34.2,20.4845333 34.2,20.2654 C34.2,17.4736667 31.9326667,15.2 29.1333333,15.2 C26.334,15.2 24.0666667,17.4736667 24.0666667,20.2654 C24.0666667,21.0735333 24.2693333,21.8272 24.6113333,22.5086667 L13.0086667,32.5672667 C12.1853333,32.0010667 11.1973333,31.6654 10.1333333,31.6654 C7.334,31.6654 5.06666667,33.9390667 5.06666667,36.7320667 C5.06666667,39.5263333 7.334,41.8 10.1333333,41.8 L10.1333333,41.8 L10.1333333,41.8 Z" id="Fill-2855"></path>
                </g>
            </g>
        </g>
    </g>
</svg>

<svg width="76" height="76" viewBox="0 0 76 76" xmlns="http://www.w3.org/2000/svg">
    <desc>
        Created with Sketch.
    </desc>
    <g fill="#0A0B09">
        <path d="M60.8 27.867h7.6v45.6h-7.6v-45.6zm-17.733 22.8h7.6v22.8h-7.6v-22.8zm-17.734-7.6h7.6v30.4h-7.6v-30.4zM7.6 60.8h7.6v12.667H7.6V60.8zm67.133 12.667h-3.8V26.6c0-.7-.57-1.267-1.266-1.267H59.533c-.696 0-1.266.568-1.266 1.268v46.867H53.2V49.4c0-.7-.57-1.267-1.267-1.267H41.8c-.697 0-1.267.568-1.267 1.268v24.067h-5.066V41.8c0-.7-.57-1.267-1.267-1.267H24.067c-.697 0-1.267.568-1.267 1.268v31.667h-5.067V59.533c0-.7-.57-1.266-1.266-1.266H6.333c-.696 0-1.266.567-1.266 1.266v13.934h-3.8C.57 73.467 0 74.034 0 74.733 0 75.433.57 76 1.267 76h73.466C75.43 76 76 75.434 76 74.734s-.57-1.266-1.267-1.266z"/>
        <path d="M10.133 34.2c.76 0 1.444.345 1.9.878v.002c.393.446.634 1.02.634 1.652 0 1.397-1.14 2.533-2.534 2.533-1.393 0-2.533-1.136-2.533-2.533 0-1.396 1.14-2.532 2.533-2.532zm19-16.468c1.394 0 2.534 1.138 2.534 2.533 0 1.398-1.14 2.535-2.534 2.535-1.393 0-2.533-1.137-2.533-2.535 0-1.395 1.14-2.533 2.533-2.533zm19 7.6c.608 0 1.166.23 1.61.593v.005c0 .004.012.004.012.005.557.465.912 1.153.912 1.93 0 1.398-1.14 2.535-2.534 2.535-1.393 0-2.533-1.137-2.533-2.535 0-1.395 1.14-2.533 2.533-2.533zm19-22.8c1.394 0 2.534 1.138 2.534 2.533 0 1.398-1.14 2.535-2.534 2.535-1.393 0-2.533-1.137-2.533-2.535 0-1.395 1.14-2.533 2.533-2.533zm-57 39.268c2.8 0 5.067-2.274 5.067-5.068 0-.808-.203-1.562-.545-2.24l11.603-10.06c.823.564 1.81.9 2.875.9 1.672 0 3.142-.822 4.066-2.076l9.93 3.974c-.025.21-.063.418-.063.635 0 2.795 2.267 5.067 5.066 5.067 2.8 0 5.067-2.272 5.067-5.067 0-1.1-.367-2.114-.963-2.945L64.98 9.634c.66.312 1.38.498 2.153.498 2.8 0 5.067-2.272 5.067-5.067C72.2 2.275 69.933 0 67.133 0c-2.8 0-5.066 2.274-5.066 5.065 0 1.102.367 2.117.962 2.947L50.286 23.3c-.66-.31-1.38-.5-2.154-.5-1.672 0-3.14.822-4.066 2.076l-9.93-3.973c.025-.21.063-.418.063-.638 0-2.79-2.267-5.065-5.067-5.065-2.8 0-5.066 2.274-5.066 5.065 0 .81.202 1.562.544 2.244l-11.6 10.057c-.825-.566-1.813-.902-2.877-.902-2.8 0-5.066 2.274-5.066 5.067 0 2.794 2.267 5.068 5.066 5.068z"/>
    </g>
</svg>
